icons/solid/ticket.svg

<svg width="24" height="24" viewBox="0 0 24 24" fill="none" xmlns="http://www.w3.org/2000/svg">
<path fill-rule="evenodd" clip-rule="evenodd" d="M14 4H5C3.34315 4 2 5.34315 2 7V9C2 10.145 2.92941 10.8353 3.52411 11.1273C3.66625 11.197 3.77625 11.2883 3.85208 11.4021C3.92389 11.5099 4 11.6896 4 12C4 12.3104 3.92389 12.4901 3.85208 12.5979C3.77625 12.7117 3.66625 12.803 3.52411 12.8727C2.92941 13.1647 2 13.855 2 15V17C2 18.6569 3.34315 20 5 20H14V17C14 16.4477 14.4477 16 15 16C15.5523 16 16 16.4477 16 17V20H19C20.6569 20 22 18.6569 22 17V15C22 13.855 21.0706 13.1647 20.4759 12.8727C20.3337 12.803 20.2237 12.7117 20.1479 12.5979C20.0761 12.4901 20 12.3104 20 12C20 11.6896 20.0761 11.5099 20.1479 11.4021C20.2237 11.2883 20.3337 11.197 20.4759 11.1273C21.0706 10.8353 22 10.145 22 9V7C22 5.34315 20.6569 4 19 4H16V7C16 7.55228 15.5523 8 15 8C14.4477 8 14 7.55228 14 7V4ZM16 11C16 10.4477 15.5523 10 15 10C14.4477 10 14 10.4477 14 11V13C14 13.5523 14.4477 14 15 14C15.5523 14 16 13.5523 16 13V11Z" fill="currentColor"/>
</svg>

<svg width="24" height="24" fill="none" xmlns="http://www.w3.org/2000/svg"><path fill-rule="evenodd" clip-rule="evenodd" d="M14 4H5a3 3 0 00-3 3v2c0 1.145.93 1.835 1.524 2.127.142.07.252.161.328.275.072.108.148.288.148.598s-.076.49-.148.598a.812.812 0 01-.328.275C2.93 13.165 2 13.855 2 15v2a3 3 0 003 3h9v-3a1 1 0 112 0v3h3a3 3 0 003-3v-2c0-1.145-.93-1.835-1.524-2.127a.812.812 0 01-.328-.275C20.076 12.49 20 12.31 20 12s.076-.49.148-.598a.812.812 0 01.328-.275C21.07 10.835 22 10.145 22 9V7a3 3 0 00-3-3h-3v3a1 1 0 11-2 0V4zm2 7a1 1 0 10-2 0v2a1 1 0 102 0v-2z" fill="currentColor"/></svg>
